X:1

T:Barns of Clyde, The

M:C

L:1/8

R:Reel

S:Glen Collection, vol. 1  (1891)

Z:AK/Fiddler’s Companion

K:Dmin

^c|d2 DE FGA=B|c>dcG ECGE|F>EDE FGAe|fde^c dDD:|

e|f>gag f>ede|c/c/c ec Gceg|f>ga>g f>efd|gece dDDe|

f>gag fgab|agfe gedc|d^cdA =cGAE|CEcE D/D/D D||

                       

BARNYARD SERENADE. A version of “Old Hen Cackle(d) [1]” recorded by fiddler G.B. Grayson (with guitarist Henry Whitter) for Victor in the late 1920's.

                       

BARNYARDS OF DELGATY, THE. Scottish, Air ("Bothy Ballad"). A Major. Standard tuning. AB. The ballad “Barnyards of Delgatie” refers to the home farm of Delgatie Castle, Turriff, an impressive house built by the Hays of Errol. See also note for William Marshall’s reel “Lady Duff of Delgaty.” Hunter (Fiddle Music of Scotland), 1988; No. 363.

                       

BAROC, LA.  French, Country Dance (2/4 time). G Major. Standard tuning. AABBCC. From the contradance book (tunes with dance instructions) of Robert Daubat (who styled himself Robert d’Aubat de Saint-Flour), born in Saint-Flour, Cantal, France, in 1714, dying in Gent, Belgium, in 1782. According to Belgian fiddler Luc De Cat, at the time of the publication of his collection (1757) Daubat was a dancing master in Gent and taught at several schools and theaters.  He also was the leader of a choir and was a violin player in a theater. Mr. De Cat identifies a list of subscribers of the original publication, numbering 132 individuals, of the higher level of society and the nobility, but also including musicians and dance-masters (including the ballet-master from the Italian opera in London). Many of the tunes are written with parts for various instruments, and include a numbered bass. Daubat (Cent Contredanses en Rond), 1757; No. 36.

